X: 1075
T: A Theater Jigg
%R: jig
B: Henry Playford "Apollo's Banquet", London 1687 (5th Edition)
F: https://archive.org/details/apollosbanquetco01rugg
Z: 2017 John Chambers <jc:trillian.mit.edu>
M: 3/2
L: 1/8
K: Bb
% - - - - - - - - - -
f2 |\
d3ed2 c3Bc3 | B3AB2 A4B2 |\
G3AB2 c3Bc2 | d4f2 a4d2 |\
=e2c2f2 f3g=e2 | f4f2 f4 :: f2 |\
^f3=e^f2 g3^fg2 |
=e3d=e2 f4f2 |\
=e3dc2 d3cB2 | A6- A4A2 |\
F3ED2  B4B2 | G3FE2 e4d2 |\
c3dB2 B3cA2 | B4B2 B4 |]
% - - - - - - - - - -

%%sep 1 1 500
%%sep 1 1 500

